usr/share/icons/biglinux-icons-material/24/actions/tool-measure.svg

<svg xmlns="http://www.w3.org/2000/svg" viewBox="0 0 24 24"><path d="M4 4v7h16V4H4zm1 1h2v2h1V5h1v3h1V5h1v2h1V5h1v2h1V5h1v3h1V5h3v5H5V5zm2.707 9-3 3 3 3v-6zM17 14v6l3-3-3-3z" style="fill:currentColor;fill-opacity:1;stroke:none;color:#dedede"/></svg>

<svg xmlns="http://www.w3.org/2000/svg" viewBox="0 0 24 24">
  <defs id="defs3051">
    <style type="text/css" id="current-color-scheme">
      .ColorScheme-Text {
        color:#dedede;
      }
      </style>
  </defs>
 <path style="fill:currentColor;fill-opacity:1;stroke:none" 
     d="M 4 4 L 4 11 L 5 11 L 20 11 L 20 10 L 20 5 L 20 4 L 5 4 L 4 4 z M 5 5 L 6 5 L 7 5 L 7 7 L 8 7 L 8 5 L 9 5 L 9 8 L 10 8 L 10 5 L 11 5 L 11 7 L 12 7 L 12 5 L 13 5 L 13 7 L 14 7 L 14 5 L 15 5 L 15 8 L 16 8 L 16 5 L 18 5 L 19 5 L 19 10 L 5 10 L 5 8 L 5 5 z M 7.7070312 14 L 4.7070312 17 L 7.7070312 20 L 7.7070312 14 z M 17 14 L 17 20 L 20 17 L 17 14 z "
     class="ColorScheme-Text"
     />
</svg>
